storage/app/icons/phosphoricons/regular/credit-card.svg

<svg xmlns="http://www.w3.org/2000/svg" fill="currentColor" viewBox="0 0 256 256"><path d="M224 48H32a16 16 0 0 0-16 16v128a16 16 0 0 0 16 16h192a16 16 0 0 0 16-16V64a16 16 0 0 0-16-16m0 16v24H32V64Zm0 128H32v-88h192zm-16-24a8 8 0 0 1-8 8h-32a8 8 0 0 1 0-16h32a8 8 0 0 1 8 8m-64 0a8 8 0 0 1-8 8h-16a8 8 0 0 1 0-16h16a8 8 0 0 1 8 8"/></svg>

<svg xmlns="http://www.w3.org/2000/svg" viewBox="0 0 256 256" fill="currentColor"><path d="M224,48H32A16,16,0,0,0,16,64V192a16,16,0,0,0,16,16H224a16,16,0,0,0,16-16V64A16,16,0,0,0,224,48Zm0,16V88H32V64Zm0,128H32V104H224v88Zm-16-24a8,8,0,0,1-8,8H168a8,8,0,0,1,0-16h32A8,8,0,0,1,208,168Zm-64,0a8,8,0,0,1-8,8H120a8,8,0,0,1,0-16h16A8,8,0,0,1,144,168Z"/></svg>
